X:211
T:Whinny Hills of Leitrim, The    
B:CRE1.067 (Cnoic Aiteannach Liadroma)
F:file ID: cre.1/211whinny
S:Sonny Brogan
M:9/8
Q:160
R:slip jig
K:G
AGA dcA d2c|AGA dcA GFG|AGA dcA d2c|eag ege dBG:|
GBB GBd g3|GBB GBG FED|GBB GBd gag|fgf efe dBA:|

%%%

